src/status/16/fcitx-skk.svg

<svg xmlns="http://www.w3.org/2000/svg" width="16" height="16">
    <path fill="currentColor" fill-opacity=".7" d="M6 4h1v4.293L9.293 6H10V4h1v4.293L13.293 6h1.414l-3 3 3 3h-1.414L11 9.707V12H9.293L7 9.707V12H6v-2c0 .583-.154 1.111-.521 1.479C5.11 11.846 4.583 12 4 12c-.583 0-1.11-.154-1.478-.521C2.155 11.111 2 10.583 2 10h1c0 .417.095.639.228.771.132.133.355.229.772.229.417 0 .64-.096.771-.229.133-.132.229-.354.229-.771 0-.417-.096-.64-.229-.771C4.64 9.096 4.417 9 4 9c-.583 0-1.11-.155-1.478-.521C2.155 8.11 2 7.583 2 7c0-.583.155-1.11.522-1.479C2.89 5.154 3.417 5 4 5s1.11.154 1.479.521C5.846 5.89 6 6.417 6 7Zm0 3H5c0-.417-.096-.64-.229-.771C4.64 6.096 4.417 6 4 6c-.417 0-.64.096-.772.229C3.095 6.36 3 6.583 3 7c0 .417.095.64.228.771C3.36 7.904 3.583 8 4 8c.583 0 1.11.155 1.479.521C5.846 8.89 6 9.418 6 10Zm4-.293L7.707 9 10 11.293Z" color="#050505"/>
    <path fill="currentColor" fill-opacity=".7" d="M3 0C1.338 0 0 1.338 0 3v10c0 1.662 1.338 3 3 3h9.999c1.662 0 3-1.338 3-3V3c0-1.662-1.338-3-3-3zm0 1h9.999c1.108 0 2 .892 2 2v10c0 1.108-.892 2-2 2H3c-1.108 0-2-.892-2-2V3c0-1.108.892-2 2-2z" class="ColorScheme-Text" color="#050505"/>
</svg>

<svg width="16" height="16" version="1.1" xmlns="http://www.w3.org/2000/svg">
 <defs>
  <style id="current-color-scheme" type="text/css"/>
 </defs>
 <path d="M 6,4 H 7 V 8.293 L 9.293,6 H 10 V 4 h 1 V 8.293 L 13.293,6 h 1.414 l -3,3 3,3 H 13.293 L 11,9.707 V 12 H 9.293 L 7,9.707 V 12 H 6 V 10 C 6,10.583 5.846,11.111 5.479,11.479 5.11,11.846 4.583,12 4,12 3.417,12 2.89,11.846 2.522,11.479 2.155,11.111 2,10.583 2,10 h 1 c 0,0.417 0.095,0.639 0.228,0.771 C 3.36,10.904 3.583,11 4,11 4.417,11 4.64,10.904 4.771,10.771 4.904,10.639 5,10.417 5,10 5,9.583 4.904,9.36 4.771,9.229 4.64,9.096 4.417,9 4,9 3.417,9 2.89,8.845 2.522,8.479 2.155,8.11 2,7.583 2,7 2,6.417 2.155,5.89 2.522,5.521 2.89,5.154 3.417,5 4,5 4.583,5 5.11,5.154 5.479,5.521 5.846,5.89 6,6.417 6,7 Z M 6,7 H 5 C 5,6.583 4.904,6.36 4.771,6.229 4.64,6.096 4.417,6 4,6 3.583,6 3.36,6.096 3.228,6.229 3.095,6.36 3,6.583 3,7 3,7.417 3.095,7.64 3.228,7.771 3.36,7.904 3.583,8 4,8 4.583,8 5.11,8.155 5.479,8.521 5.846,8.89 6,9.418 6,10 Z M 10,6.707 7.707,9 10,11.293 Z" color="#363636" fill="currentColor"/>
 <path class="ColorScheme-Text" d="m3 0c-1.662 0-3 1.338-3 3v10c0 1.662 1.338 3 3 3h9.9989c1.662 0 3-1.338 3-3v-10c0-1.662-1.338-3-3-3zm0 1h9.9989c1.108 0 2 0.892 2 2v10c0 1.108-0.892 2-2 2h-9.9989c-1.108 0-2-0.892-2-2v-10c0-1.108 0.892-2 2-2z" color="#363636" fill="currentColor"/>
</svg>
